X: 1
T: Gowlaun
R: reel
M: 4/4
L: 1/8
K: Gmaj
||: dfeB dBAc | BGAG EDB,E | (3GFE (3FED E2 CE | DEGB AE E2 |
| dfeB dBAc | BGAG EDB,E | G2 FD E2CE | DEGA BG G2 :|
|: dfgf g2 ef | gbaf ge d2 | (3efg fa gbag | (3fga eB d2 Bd |
| ea a2 agef | gbaf gedB | GABd efge |1 dBAc BGG2 :|2 dBcA G4 ||

composer: Brendan Tonra
